X:1
T:Watchman, Tell Us of the Night
T:Watchman, Tell Us of the Night
T:Lowell Mason, 1831
T:John Bowring, 1825
T:Public Domain Courtesy of the Cyber Hymnal™
C:Lowell Mason, 1831
Z:Public Domain
Z:Courtesy of the Cyber Hymnal™
%%score ( 1 2 ) ( 3 4 )
L:1/8
Q:1/4=130
M:3/2
K:D
V:1 treble 
V:2 treble 
V:3 bass 
V:4 bass 
V:1
 D4 [DE]2 [DF]4 [DE]2 | [DF]4 [DG]2 [DA]6 | [DA]4 [DF]2 [DA]4 [DB]2 | [DA]4 [DF]2 [CE]6 | %4
w: 1.~Watch- man, tell us|of the night,|What its signs of|prom- ise are.|
w: 2.~Watch- man, tell us|of the night;|High- er yet that|star as- cends.|
w: 3.~Watch- man, tell us|of the night,|For the morn- ing|seems to dawn.|
 D4 [DE]2 [DF]4 [DE]2 | [DF]4 [DG]2 [DA]6 | [Dd]4 [DB]2 [DA]4 [DE]2 | [DF]4 [CE]2 D6 | %8
w: Trav- eler, o’er yon|mount- ain’s height,|See that glor- y|beam- ing star.|
w: Trav- eler, bless- ed-|ness and light,|Peace and truth its|course por- tends.|
w: Trav- eler, dark- ness|takes its flight,|Doubt and ter- ror|are with- drawn.|
 [DA]4 [DF]2 [Dd]4 [DB]2 | [DA]4 [DF]2 [Dd]6 | [DA]4 [DF]2 [Fd]4 [FB]2 | [Ec]4 [DB]2 [CA]6 | %12
w: Watch- man, does its|beau- teous ray|Aught of joy or|hope fore- tell?|
w: Watch- man, will its|beams a- lone|Gild the spot that|gave them birth?|
w: Watch- man, let thy|wan- derings cease;|Hie thee to thy|qui- et home.|
 [DF]4 [CE]2 D4 [DE]2 | [DF]4 [DG]2 [DA]6 | [Dd]4 [DB]2 [DA]4 [DE]2 | [DF]4 [CE]2 D2- | D6 z6 |] %17
w: Trave- ler, yes— it|brings the day,|Prom- ised day of|Is- ra- el.||
w: Trav- eler, ag- es|are its own;|See, it bursts o’er|all the earth.||
w: Trav- eler, lo! the|Prince of Peace,|Lo! the Son of|God is come!||
V:2
 D4 x8 | x12 | x12 | x12 | D4 x8 | x12 | x12 | x6 D6 | x12 | x12 | x12 | x12 | x6 D4 x2 | x12 | %14
 x12 | x6 D2- | D6 x6 |] %17
V:3
 [D,F,]4 [D,G,]2 [D,A,]4 [D,G,]2 | [D,A,]4 [D,E,]2 [D,F,]6 | [D,F,]4 [D,A,]2 [D,F,]4 [D,G,]2 | %3
 [D,F,]4 [F,A,]2 A,6 | [D,F,]4 [D,G,]2 [D,A,]4 [D,G,]2 | [D,A,]4 [D,E,]2 [D,F,]6 | %6
 [F,A,]4 G,2 [F,A,]4 [G,B,]2 | A,4 [A,,G,]2 [D,F,]6 | [D,F,]4 [D,A,]2 [D,F,]4 [D,G,]2 | %9
 [D,F,]4 [D,A,]2 [D,F,]6 | [D,F,]4 [D,A,]2 [B,,B,]4 [D,F,]2 | [E,A,]4 [E,^G,]2 [A,,A,]6 | %12
 [D,A,]4 [D,G,]2 [D,F,]4 [D,G,]2 | [D,A,]4 [D,B,]2 [D,F,]6 | [F,A,]4 G,2 [F,A,]4 [G,B,]2 | %15
 A,4 [A,,G,]2 [D,F,]2- | [D,F,]6 z6 |] %17
V:4
 x12 | x12 | x12 | x6 A,6 | x12 | x12 | x4 G,2 x6 | A,4 x8 | x12 | x12 | x12 | x12 | x12 | x12 | %14
 x4 G,2 x6 | A,4 x4 | x12 |] %17

